X: 21461
T: SWEET'S THE NAME OF PEGGY -- Reel
R: reel
B: K\"ohler's Violin Repository, v.2, 1885 p.146 #1
F: http://www.archive.org/details/klersviolinrepos02rugg
Z: 2012 John Chambers <jc:trillian.mit.edu>
N: The 2nd part has two endings but no initial repeat sign.  Fixed.
M: C|
L: 1/8
K: E
|: veBGE GBBc | =dAFD FA=gf | eBGB egbg | afdf (g<e)e2 :|
|: ebgb ebge | defg afdf |\
[1 ebgb ebge | defa (g<e)e2 :|\
[2 bgaf gefd | e{f}g f{b}a g{a}b a{g}f "_D.C."|]

%%sep 2 1 500

